Newaita-dark/actions/32/mail-mark-unread.svg

<?xml version="1.0" encoding="UTF-8"?>
<svg xmlns="http://www.w3.org/2000/svg" xmlns:xlink="http://www.w3.org/1999/xlink" width="32pt" height="32pt" viewBox="0 0 32 32" version="1.1">
<g id="surface1">
<path style=" stroke:none;fill-rule:nonzero;fill:rgb(14.901961%,65.098041%,60.392159%);fill-opacity:1;" d="M 3.96875 4.21875 C 2.503906 4.21875 1.324219 5.398438 1.324219 6.863281 L 1.324219 26.050781 C 1.324219 27.515625 2.503906 28.695312 3.96875 28.695312 L 27.785156 28.695312 C 29.25 28.695312 30.429688 27.515625 30.429688 26.050781 L 30.429688 6.863281 C 30.429688 5.398438 29.25 4.21875 27.785156 4.21875 Z M 5.019531 6.203125 L 26.730469 6.203125 L 15.875 15.917969 Z M 3.308594 7.738281 L 15.113281 18.300781 C 15.546875 18.6875 16.203125 18.6875 16.636719 18.300781 L 28.445312 7.738281 L 28.445312 25.386719 C 28.445312 26.121094 27.855469 26.710938 27.121094 26.710938 L 4.628906 26.710938 C 3.898438 26.710938 3.308594 26.121094 3.308594 25.386719 Z M 3.308594 7.738281 "/>
</g>
</svg>

<svg xmlns="http://www.w3.org/2000/svg" width="32pt" height="32pt" viewBox="0 0 32 32"><path d="M3.969 4.219a2.639 2.639 0 0 0-2.645 2.644v19.188a2.639 2.639 0 0 0 2.645 2.644h23.816a2.639 2.639 0 0 0 2.645-2.644V6.863a2.639 2.639 0 0 0-2.645-2.644zm1.05 1.984H26.73l-10.855 9.715zM3.31 7.738l11.804 10.563c.434.387 1.09.387 1.524 0L28.445 7.738v17.649a1.32 1.32 0 0 1-1.324 1.324H4.63c-.73 0-1.32-.59-1.32-1.324zm0 0" fill="#26a69a"/></svg>
